icons/run-line.svg

<svg xmlns="http://www.w3.org/2000/svg" width="24" height="24" fill="none"><g clip-path="url(#a)"><g><path fill="#121212" d="M9.83037 8.79L8.00037 9.456V13H6.00038V8.05H6.01537L11.2834 6.132C11.5274 6.039 11.7934 5.992 12.0654 6.001C12.6089 6.01455 13.1347 6.19711 13.5696 6.52328C14.0046 6.84946 14.3271 7.30305 14.4924 7.821C14.6784 8.404 14.8484 8.798 15.0024 9.003C15.4678 9.62362 16.0714 10.1272 16.7654 10.4739C17.4594 10.8205 18.2246 11.0007 19.0004 11V13C17.9677 13.0011 16.9476 12.7733 16.0135 12.3329C15.0794 11.8925 14.2546 11.2504 13.5984 10.453L12.9014 14.409L15.0004 16.17V23H13.0004V17.102L10.7304 15.198L10.0034 19.325L3.10938 18.11L3.45738 16.14L8.38137 17.008L9.83037 8.79ZM13.5004 5.5C12.9699 5.5 12.4612 5.28929 12.0862 4.91421C11.7111 4.53914 11.5004 4.03043 11.5004 3.5C11.5004 2.96957 11.7111 2.46086 12.0862 2.08579C12.4612 1.71071 12.9699 1.5 13.5004 1.5C14.0308 1.5 14.5395 1.71071 14.9146 2.08579C15.2897 2.46086 15.5004 2.96957 15.5004 3.5C15.5004 4.03043 15.2897 4.53914 14.9146 4.91421C14.5395 5.28929 14.0308 5.5 13.5004 5.5Z"/></g></g><defs><clipPath id="a"><rect width="24" height="24" fill="white"/></clipPath></defs></svg>

<svg width="24" height="24" fill="none" xmlns="http://www.w3.org/2000/svg"><g clip-path="url(#a)"><path d="M9.83 8.79 8 9.456V13H6V8.05h.015l5.268-1.918c.244-.093.51-.14.782-.131a2.616 2.616 0 0 1 2.427 1.82c.186.583.356.977.51 1.182A4.992 4.992 0 0 0 19 11v2a6.987 6.987 0 0 1-5.402-2.547l-.697 3.956 2.1 1.761V23h-2v-5.898l-2.27-1.904-.728 4.127L3.11 18.11l.348-1.97 4.924.868 1.45-8.218ZM13.5 5.5a2 2 0 1 1 0-4 2 2 0 0 1 0 4Z" /></g><defs><clipPath id="a"><path fill="#fff" d="M0 0h24v24H0z"/></clipPath></defs></svg>
